;FLAVOR:Marlin
;TIME:1322
;Filament used: 0.858529m
;Layer height: 0.2
;MINX:14.526
;MINY:8.808
;MINZ:0.2
;MAXX:66.526
;MAXY:50.808
;MAXZ:8
;TARGET_MACHINE.NAME:Creality Ender-3 Pro
;POSTPROCESSED
;  [ModifyFlowRateOnLayer]
;Generated with Cura_SteamEngine 5.8.0-beta.1
M82 ;absolute extrusion mode
; Ender 3 Custom Start G-code
G92 E0 ; Reset Extruder
G28 ; Home all axes
G1 Z5.0 F3000 ; Move Z Axis up a bit during heating to not damage bed
M104 S175 ; Start heating up the nozzle most of the way
M190 S60 ; Start heating the bed, wait until target temperature reached
M109 S200 ; Finish heating the nozzle
G1 Z2.0 F3000 ; Move Z Axis up little to prevent scratching of Heat Bed
G1 X0.1 Y20 Z0.3 F5000.0 ; Move to start position
G1 X0.1 Y200.0 Z0.3 F1500.0 E15 ; Draw the first line
G1 X0.4 Y200.0 Z0.3 F5000.0 ; Move to side a little
G1 X0.4 Y20 Z0.3 F1500.0 E30 ; Draw the second line
G92 E0 ; Reset Extruder
G1 Z2.0 F3000 ; Move Z Axis up little to prevent scratching of Heat Bed
G1 X5 Y20 Z0.3 F5000.0 ; Move over to prevent blob squish
G92 E0
G92 E0
G1 F1500 E-6.5
;LAYER_COUNT:40
;LAYER:0
M107
G0 F6000 X16.702 Y13.262 Z0.2
;TYPE:SKIRT
G1 F1500 E0
G1 F1200 X17.293 Y12.534 E0.03119
G1 X17.995 Y11.809 E0.06475
G1 X18.705 Y11.195 E0.09597
G1 X19.524 Y10.605 E0.12955
G1 X20.363 Y10.109 E0.16196
G1 X21.177 Y9.718 E0.192
G1 X22.154 Y9.35 E0.22672
G1 X23.058 Y9.1 E0.25792
G1 X24.06 Y8.917 E0.2918
G1 X25.231 Y8.821 E0.33087
G1 X25.838 Y8.808 E0.35107
G1 X54.829 Y8.808 E1.31531
G1 X55.695 Y8.82 E1.34412
G1 X56.667 Y8.877 E1.3765
G1 X57.63 Y9.023 E1.4089
G1 X58.576 Y9.252 E1.44127
G1 X59.5 Y9.564 E1.47371
G1 X60.39 Y9.956 E1.50605
G1 X61.213 Y10.407 E1.53727
G1 X62.052 Y10.968 E1.57084
G1 X62.756 Y11.534 E1.60088
G1 X63.509 Y12.259 E1.63565
G1 X64.146 Y12.995 E1.66802
G1 X64.676 Y13.726 E1.69805
G1 X65.212 Y14.623 E1.73281
G1 X65.634 Y15.501 E1.76521
G1 X65.976 Y16.413 E1.7976
G1 X66.236 Y17.351 E1.82998
G1 X66.414 Y18.318 E1.86268
G1 X66.511 Y19.463 E1.9009
G1 X66.526 Y20.138 E1.92336
G1 X66.525 Y39.208 E2.55763
G1 X66.514 Y39.971 E2.58301
G1 X66.457 Y40.944 E2.61542
G1 X66.312 Y41.907 E2.64781
G1 X66.083 Y42.853 E2.68019
G1 X65.772 Y43.777 E2.71261
G1 X65.38 Y44.668 E2.74499
G1 X64.912 Y45.52 E2.77732
G1 X64.39 Y46.301 E2.80857
G1 X63.757 Y47.086 E2.84211
G1 X63.132 Y47.737 E2.87212
G1 X62.343 Y48.425 E2.90694
G1 X61.583 Y48.975 E2.93814
G1 X60.716 Y49.492 E2.97172
G1 X59.838 Y49.914 E3.00412
G1 X58.927 Y50.256 E3.03648
G1 X57.988 Y50.517 E3.0689
G1 X57.022 Y50.695 E3.10157
G1 X55.871 Y50.793 E3.13999
G1 X55.196 Y50.808 E3.16244
G1 X26.09 Y50.807 E4.13051
G1 X25.357 Y50.796 E4.1549
G1 X24.385 Y50.739 E4.18728
G1 X23.422 Y50.593 E4.21968
G1 X22.476 Y50.364 E4.25205
G1 X21.552 Y50.052 E4.28449
G1 X20.662 Y49.66 E4.31683
G1 X19.839 Y49.209 E4.34805
G1 X19 Y48.648 E4.38161
G1 X18.296 Y48.082 E4.41166
G1 X17.543 Y47.357 E4.44642
G1 X16.906 Y46.621 E4.4788
G1 X16.376 Y45.89 E4.50883
G1 X15.84 Y44.993 E4.54359
G1 X15.418 Y44.115 E4.57599
G1 X15.076 Y43.203 E4.60838
G1 X14.816 Y42.265 E4.64076
G1 X14.638 Y41.296 E4.67352
G1 X14.54 Y40.117 E4.71287
G1 X14.526 Y39.466 E4.73453
G1 X14.527 Y20.317 E5.37143
G1 X14.539 Y19.616 E5.39475
G1 X14.599 Y18.643 E5.42717
G1 X14.746 Y17.682 E5.45951
G1 X14.977 Y16.734 E5.49196
G1 X15.279 Y15.845 E5.52319
G1 X15.686 Y14.923 E5.55671
G1 X16.157 Y14.071 E5.58909
G1 X16.702 Y13.262 E5.62153
G0 F6000 X17.013 Y13.514
G1 F1200 X17.604 Y12.786 E5.65272
G1 X18.257 Y12.112 E5.68393
G1 X18.967 Y11.498 E5.71515
G1 X19.728 Y10.949 E5.74636
G1 X20.536 Y10.47 E5.7776
G1 X21.35 Y10.079 E5.80764
G1 X22.261 Y9.736 E5.84002
G1 X23.165 Y9.486 E5.87121
G1 X24.093 Y9.316 E5.90259
G1 X25.24 Y9.221 E5.94087
G1 X25.847 Y9.208 E5.96106
G1 X54.824 Y9.208 E6.92484
G1 X55.672 Y9.219 E6.95305
G1 X56.608 Y9.273 E6.98423
G1 X57.537 Y9.412 E7.01548
G1 X58.449 Y9.631 E7.04667
G1 X59.339 Y9.93 E7.0779
G1 X60.198 Y10.307 E7.1091
G1 X61.021 Y10.758 E7.14031
G1 X61.801 Y11.28 E7.17153
G1 X62.505 Y11.846 E7.20157
G1 X63.207 Y12.521 E7.23396
G1 X63.822 Y13.23 E7.26518
G1 X64.352 Y13.961 E7.29521
G1 X64.852 Y14.797 E7.32761
G1 X65.26 Y15.642 E7.35882
G1 X65.591 Y16.52 E7.39003
G1 X65.843 Y17.424 E7.42124
G1 X66.015 Y18.352 E7.45263
G1 X66.112 Y19.497 E7.49085
G1 X66.126 Y20.138 E7.51218
G1 X66.125 Y39.203 E8.14628
G1 X66.115 Y39.948 E8.17106
G1 X66.061 Y40.885 E8.20228
G1 X65.923 Y41.814 E8.23352
G1 X65.704 Y42.726 E8.26471
G1 X65.406 Y43.616 E8.29593
G1 X65.029 Y44.476 E8.32716
G1 X64.579 Y45.298 E8.35833
G1 X64.057 Y46.079 E8.38957
G1 X63.468 Y46.809 E8.42077
G1 X62.843 Y47.46 E8.45079
G1 X62.108 Y48.101 E8.48322
G1 X61.348 Y48.651 E8.51443
G1 X60.542 Y49.132 E8.54565
G1 X59.697 Y49.54 E8.57686
G1 X58.819 Y49.871 E8.60806
G1 X57.915 Y50.124 E8.63929
G1 X56.988 Y50.296 E8.67064
G1 X55.837 Y50.394 E8.70907
G1 X55.196 Y50.408 E8.73039
G1 X26.096 Y50.407 E9.69826
G1 X25.38 Y50.397 E9.72208
G1 X24.444 Y50.343 E9.75326
G1 X23.515 Y50.204 E9.7845
G1 X22.603 Y49.985 E9.8157
G1 X21.713 Y49.686 E9.84693
G1 X20.854 Y49.309 E9.87813
G1 X20.031 Y48.858 E9.90934
G1 X19.251 Y48.336 E9.94056
G1 X18.547 Y47.77 E9.9706
G1 X17.845 Y47.095 E10.00299
G1 X17.23 Y46.386 E10.03421
G1 X16.7 Y45.655 E10.06424
G1 X16.2 Y44.819 E10.09664
G1 X15.792 Y43.974 E10.12785
G1 X15.461 Y43.096 E10.15906
G1 X15.209 Y42.192 E10.19027
G1 X15.037 Y41.263 E10.22169
G1 X14.939 Y40.084 E10.26104
G1 X14.926 Y39.466 E10.2816
G1 X14.927 Y20.323 E10.9183
G1 X14.938 Y19.64 E10.94102
G1 X14.995 Y18.703 E10.97224
G1 X15.135 Y17.776 E11.00343
G1 X15.356 Y16.863 E11.03467
G1 X15.658 Y15.974 E11.0659
G1 X16.036 Y15.116 E11.09708
G1 X16.489 Y14.294 E11.1283
G1 X17.013 Y13.514 E11.15955
G0 F6000 X17.324 Y13.766
G1 F1200 X17.892 Y13.064 E11.18959
G1 X18.519 Y12.414 E11.21962
G1 X19.201 Y11.822 E11.24966
G1 X19.933 Y11.293 E11.2797
G1 X20.709 Y10.831 E11.30974
G1 X21.523 Y10.44 E11.33977
G1 X22.368 Y10.121 E11.36981
G1 X23.238 Y9.879 E11.39985
G1 X24.126 Y9.715 E11.42988
G1 X25.249 Y9.621 E11.46736
G1 X25.856 Y9.608 E11.48756
G1 X54.819 Y9.608 E12.45087
G1 X55.649 Y9.618 E12.47848
G1 X56.55 Y9.669 E12.50849
G1 X57.444 Y9.801 E12.53855
G1 X58.322 Y10.01 E12.56857
G1 X59.179 Y10.297 E12.59863
G1 X60.006 Y10.658 E12.62864
G1 X60.799 Y11.091 E12.65869
G1 X61.55 Y11.592 E12.68872
G1 X62.254 Y12.158 E12.71876
G1 X62.905 Y12.784 E12.7488
G1 X63.498 Y13.465 E12.77884
G1 X64.028 Y14.196 E12.80887
G1 X64.492 Y14.971 E12.83891
G1 X64.886 Y15.784 E12.86896
G1 X65.206 Y16.628 E12.89898
G1 X65.45 Y17.498 E12.92903
G1 X65.616 Y18.386 E12.95908
G1 X65.713 Y19.531 E12.9973
G1 X65.726 Y20.138 E13.01749
G1 X65.725 Y39.198 E13.65143
G1 X65.716 Y39.925 E13.67561
G1 X65.665 Y40.827 E13.70566
G1 X65.534 Y41.721 E13.73571
G1 X65.325 Y42.599 E13.76573
G1 X65.039 Y43.456 E13.79578
G1 X64.678 Y44.284 E13.82582
G1 X64.246 Y45.076 E13.85583
G1 X63.745 Y45.828 E13.88588
G1 X63.179 Y46.532 E13.91593
G1 X62.554 Y47.183 E13.94594
G1 X61.873 Y47.777 E13.976
G1 X61.142 Y48.308 E14.00605
G1 X60.368 Y48.772 E14.03607
G1 X59.555 Y49.166 E14.06611
G1 X58.711 Y49.486 E14.09614
G1 X57.841 Y49.731 E14.1262
G1 X56.954 Y49.897 E14.15621
G1 X55.803 Y49.995 E14.19463
G1 X55.196 Y50.008 E14.21483
G1 X26.101 Y50.007 E15.18253
G1 X25.403 Y49.998 E15.20575
G1 X24.502 Y49.947 E15.23576
G1 X23.608 Y49.815 E15.26582
G1 X22.73 Y49.606 E15.29584
G1 X21.873 Y49.319 E15.3259
G1 X21.046 Y48.958 E15.35591
G1 X20.253 Y48.525 E15.38596
G1 X19.502 Y48.024 E15.41599
G1 X18.798 Y47.458 E15.44603
G1 X18.147 Y46.832 E15.47607
G1 X17.554 Y46.151 E15.5061
G1 X17.024 Y45.42 E15.53614
G1 X16.56 Y44.645 E15.56618
G1 X16.166 Y43.832 E15.59623
G1 X15.846 Y42.988 E15.62625
G1 X15.602 Y42.118 E15.6563
G1 X15.436 Y41.23 E15.68635
G1 X15.339 Y40.075 E15.7249
G1 X15.326 Y39.466 E15.74516
G1 X15.327 Y20.329 E16.38166
G1 X15.337 Y19.664 E16.40378
G1 X15.391 Y18.762 E16.43383
G1 X15.524 Y17.869 E16.46386
G1 X15.735 Y16.991 E16.4939
G1 X16.024 Y16.135 E16.52395
G1 X16.387 Y15.308 E16.55398
G1 X16.821 Y14.517 E16.58399
G1 X17.324 Y13.766 E16.61406
G1 F1500 E10.11406
;MESH:Cube(2)
G0 F6000 X24.861 Y32.771
G0 X38.352 Y36.904
;TYPE:WALL-INNER
G1 F1500 E16.61406
G1 F1200 X38.352 Y32.956 E16.74537
G1 X29.4 Y32.956 E17.04311
G1 X29.4 Y36.904 E17.17442
G1 X38.352 Y36.904 E17.47217
G0 F6000 X38.752 Y37.304
;TYPE:WALL-OUTER
G1 F1200 X38.752 Y32.556 E17.63009
G1 X29 Y32.556 E17.95444
G1 X29 Y37.304 E18.11236
G1 X38.752 Y37.304 E18.43671
G0 F6000 X38.482 Y37.037
G0 X37.992 Y36.804
G0 X37.992 Y36.544
;TYPE:SKIN
G1 F1200 X29.76 Y36.544 E18.71051
G1 X29.76 Y33.316 E18.81787
G1 X37.992 Y33.316 E19.09167
G1 X37.992 Y36.544 E19.19903
G0 F6000 X37.992 Y36.804
G0 X38.252 Y33.832
G0 X37.792 Y33.832
G1 F1200 X37.475 Y33.515 E19.21395
G0 F6000 X36.91 Y33.515
G1 F1200 X37.792 Y34.398 E19.25546
G0 F6000 X37.792 Y34.964
G1 F1200 X36.344 Y33.515 E19.32359
G0 F6000 X35.778 Y33.515
G1 F1200 X37.792 Y35.529 E19.41832
G0 F6000 X37.792 Y36.095
G1 F1200 X35.213 Y33.515 E19.53965
G0 F6000 X34.647 Y33.515
G1 F1200 X37.475 Y36.344 E19.6727
G0 F6000 X36.91 Y36.344
G1 F1200 X34.081 Y33.515 E19.80576
G0 F6000 X33.515 Y33.515
G1 F1200 X36.344 Y36.344 E19.93883
G0 F6000 X35.778 Y36.344
G1 F1200 X32.95 Y33.515 E20.07188
G0 F6000 X32.384 Y33.515
G1 F1200 X35.213 Y36.344 E20.20494
G0 F6000 X34.647 Y36.344
G1 F1200 X31.818 Y33.515 E20.33801
G0 F6000 X31.253 Y33.515
G1 F1200 X34.081 Y36.344 E20.47105
G0 F6000 X33.515 Y36.344
G1 F1200 X30.687 Y33.515 E20.6041
G0 F6000 X30.121 Y33.515
G1 F1200 X32.95 Y36.344 E20.73717
G0 F6000 X32.384 Y36.344
G1 F1200 X29.96 Y33.92 E20.85118
G0 F6000 X29.96 Y34.486
G1 F1200 X31.818 Y36.344 E20.93858
G0 F6000 X31.253 Y36.344
G1 F1200 X29.96 Y35.051 E20.9994
G0 F6000 X29.96 Y35.617
G1 F1200 X30.687 Y36.344 E21.03359
G0 F6000 X30.121 Y36.344
G1 F1200 X29.96 Y36.183 E21.04117
G1 F1500 E14.54117
;MESH:Cube
G0 F6000 X29.96 Y36.804
G0 X38.538 Y37.093
G0 X38.538 Y39.008
G0 X43.96 Y39.208
;TYPE:WALL-INNER
G1 F1500 E21.04117
G1 F1200 X54.924 Y39.208 E21.40583
G1 X54.924 Y20.408 E22.03112
G1 X26.124 Y20.408 E22.98901
G1 X26.124 Y39.208 E23.6143
G1 X43.96 Y39.208 E24.20753
G0 F6000 X44.106 Y39.608
;TYPE:WALL-OUTER
G1 F1200 X55.324 Y39.608 E24.58064
G1 X55.324 Y20.008 E25.23254
G1 X25.724 Y20.008 E26.21704
G1 X25.724 Y39.608 E26.86894
G1 X44.106 Y39.608 E27.48033
G0 F6000 X43.828 Y38.848
;TYPE:SKIN
G1 F1200 X26.484 Y38.848 E28.05719
G1 X26.484 Y20.768 E28.65853
G1 X54.564 Y20.768 E29.59248
G1 X54.564 Y38.848 E30.19382
G1 X43.828 Y38.848 E30.5509
G0 F6000 X43.828 Y39.108
G0 X54.752 Y39.036
G0 X54.824 Y21.555
G0 X54.364 Y21.555
G1 F1200 X53.778 Y20.968 E30.57849
G0 F6000 X53.212 Y20.968
G1 F1200 X54.364 Y22.12 E30.63268
G0 F6000 X54.364 Y22.686
G1 F1200 X52.646 Y20.968 E30.71349
G0 F6000 X52.081 Y20.968
G1 F1200 X54.364 Y23.252 E30.8209
G0 F6000 X54.364 Y23.817
G1 F1200 X51.515 Y20.968 E30.9549
G0 F6000 X50.949 Y20.968
G1 F1200 X54.364 Y24.383 E31.11553
G0 F6000 X54.364 Y24.949
G1 F1200 X50.383 Y20.968 E31.30279
G0 F6000 X49.818 Y20.968
G1 F1200 X54.364 Y25.515 E31.51664
G0 F6000 X54.364 Y26.08
G1 F1200 X49.252 Y20.968 E31.75709
G0 F6000 X48.686 Y20.968
G1 F1200 X54.364 Y26.646 E32.02417
G0 F6000 X54.364 Y27.212
G1 F1200 X48.121 Y20.968 E32.31785
G0 F6000 X47.555 Y20.968
G1 F1200 X54.364 Y27.777 E32.63812
G0 F6000 X54.364 Y28.343
G1 F1200 X46.989 Y20.968 E32.98502
G0 F6000 X46.424 Y20.968
G1 F1200 X54.364 Y28.909 E33.35851
G0 F6000 X54.364 Y29.474
G1 F1200 X45.858 Y20.968 E33.75861
G0 F6000 X45.292 Y20.968
G1 F1200 X54.364 Y30.04 E34.18533
G0 F6000 X54.364 Y30.606
G1 F1200 X44.727 Y20.968 E34.63865
G0 F6000 X44.161 Y20.968
G1 F1200 X54.364 Y31.171 E35.11857
G0 F6000 X54.364 Y31.737
G1 F1200 X43.595 Y20.968 E35.62511
G0 F6000 X43.03 Y20.968
G1 F1200 X54.364 Y32.303 E36.15825
G0 F6000 X54.364 Y32.868
G1 F1200 X42.464 Y20.968 E36.71799
G0 F6000 X41.898 Y20.968
G1 F1200 X54.364 Y33.434 E37.30435
G0 F6000 X54.364 Y34
G1 F1200 X41.333 Y20.968 E37.91731
G0 F6000 X40.767 Y20.968
G1 F1200 X54.364 Y34.566 E38.5569
G0 F6000 X54.364 Y35.131
G1 F1200 X40.201 Y20.968 E39.22308
G0 F6000 X39.635 Y20.968
G1 F1200 X54.364 Y35.697 E39.91589
G0 F6000 X54.364 Y36.263
G1 F1200 X39.07 Y20.968 E40.63529
G0 F6000 X38.504 Y20.968
G1 F1200 X54.364 Y36.828 E41.3813
G0 F6000 X54.364 Y37.394
G1 F1200 X37.938 Y20.968 E42.15393
G0 F6000 X37.373 Y20.968
G1 F1200 X54.364 Y37.96 E42.95316
G0 F6000 X54.364 Y38.525
G1 F1200 X36.807 Y20.968 E43.77898
G0 F6000 X36.241 Y20.968
G1 F1200 X53.921 Y38.648 E44.6106
G0 F6000 X53.355 Y38.648
G1 F1200 X35.676 Y20.968 E45.44219
G0 F6000 X35.11 Y20.968
G1 F1200 X52.79 Y38.648 E46.2738
G0 F6000 X52.224 Y38.648
G1 F1200 X34.544 Y20.968 E47.10541
G0 F6000 X33.979 Y20.968
G1 F1200 X51.658 Y38.648 E47.937
G0 F6000 X51.093 Y38.648
G1 F1200 X33.413 Y20.968 E48.76861
G0 F6000 X32.847 Y20.968
G1 F1200 X50.527 Y38.648 E49.60023
G0 F6000 X49.961 Y38.648
G1 F1200 X32.282 Y20.968 E50.43182
G0 F6000 X31.716 Y20.968
G1 F1200 X49.396 Y38.648 E51.26343
G0 F6000 X48.83 Y38.648
G1 F1200 X31.15 Y20.968 E52.09504
G0 F6000 X30.584 Y20.968
G1 F1200 X48.264 Y38.648 E52.92666
G0 F6000 X47.699 Y38.648
G1 F1200 X30.019 Y20.968 E53.75827
G0 F6000 X29.453 Y20.968
G1 F1200 X47.133 Y38.648 E54.58988
G0 F6000 X46.567 Y38.648
G1 F1200 X28.887 Y20.968 E55.42149
G0 F6000 X28.322 Y20.968
G1 F1200 X46.002 Y38.648 E56.25311
G0 F6000 X45.436 Y38.648
G1 F1200 X27.756 Y20.968 E57.08472
G0 F6000 X27.19 Y20.968
G1 F1200 X44.87 Y38.648 E57.91633
G0 F6000 X44.304 Y38.648
G1 F1200 X26.684 Y21.027 E58.74515
G0 F6000 X26.684 Y21.593
G1 F1200 X43.739 Y38.648 E59.54736
G0 F6000 X43.173 Y38.648
G1 F1200 X26.684 Y22.159 E60.32295
G0 F6000 X26.684 Y22.724
G1 F1200 X42.607 Y38.648 E61.07195
G0 F6000 X42.042 Y38.648
G1 F1200 X26.684 Y23.29 E61.79434
G0 F6000 X26.684 Y23.856
G1 F1200 X41.476 Y38.648 E62.49011
G0 F6000 X40.91 Y38.648
G1 F1200 X26.684 Y24.421 E63.15928
G0 F6000 X26.684 Y24.987
G1 F1200 X40.345 Y38.648 E63.80185
G0 F6000 X39.779 Y38.648
G1 F1200 X26.684 Y25.553 E64.4178
G0 F6000 X26.684 Y26.118
G1 F1200 X39.213 Y38.648 E65.00715
G0 F6000 X38.648 Y38.648
G1 F1200 X26.684 Y26.684 E65.5699
G0 F6000 X26.684 Y27.25
G1 F1200 X38.082 Y38.648 E66.10603
G0 F6000 X37.516 Y38.648
G1 F1200 X26.684 Y27.815 E66.61556
G0 F6000 X26.684 Y28.381
G1 F1200 X36.951 Y38.648 E67.09848
G0 F6000 X36.385 Y38.648
G1 F1200 X26.684 Y28.947 E67.55479
G0 F6000 X26.684 Y29.513
G1 F1200 X35.819 Y38.648 E67.98447
G0 F6000 X35.254 Y38.648
G1 F1200 X26.684 Y30.078 E68.38758
G0 F6000 X26.684 Y30.644
G1 F1200 X34.688 Y38.648 E68.76406
G0 F6000 X34.122 Y38.648
G1 F1200 X26.684 Y31.21 E69.11392
G0 F6000 X26.684 Y31.775
G1 F1200 X33.556 Y38.648 E69.43718
G0 F6000 X32.991 Y38.648
G1 F1200 X26.684 Y32.341 E69.73385
G0 F6000 X26.684 Y32.907
G1 F1200 X32.425 Y38.648 E70.00388
G0 F6000 X31.859 Y38.648
G1 F1200 X26.684 Y33.472 E70.24732
G0 F6000 X26.684 Y34.038
G1 F1200 X31.294 Y38.648 E70.46416
G0 F6000 X30.728 Y38.648
G1 F1200 X26.684 Y34.604 E70.65438
G0 F6000 X26.684 Y35.169
G1 F1200 X30.162 Y38.648 E70.818
G0 F6000 X29.597 Y38.648
G1 F1200 X26.684 Y35.735 E70.95502
G0 F6000 X26.684 Y36.301
G1 F1200 X29.031 Y38.648 E71.06541
G0 F6000 X28.465 Y38.648
G1 F1200 X26.684 Y36.866 E71.14921
G0 F6000 X26.684 Y37.432
G1 F1200 X27.9 Y38.648 E71.20641
G0 F6000 X27.334 Y38.648
G1 F1200 X26.684 Y37.998 E71.23698
G0 F6000 X26.684 Y38.563
G1 F1200 X26.768 Y38.648 E71.24096
G1 F1500 E64.74096
;MESH:Cube(1)
G0 F6000 X26.768 Y39.108
G0 X53.323 Y39.008
G0 X53.323 Y35.878
G0 X53.592 Y35.696
;TYPE:WALL-INNER
G1 F1500 E71.24096
G1 F1200 X53.592 Y24.056 E71.6281
G1 X48.384 Y24.056 E71.80132
G1 X48.384 Y35.696 E72.18847
G1 X53.592 Y35.696 E72.36169
G0 F6000 X53.992 Y36.096
;TYPE:WALL-OUTER
G1 F1200 X53.992 Y23.656 E72.77545
G1 X47.984 Y23.656 E72.97527
G1 X47.984 Y36.096 E73.38903
G1 X53.992 Y36.096 E73.58886
G0 F6000 X54.824 Y36.096
G0 X54.724 Y35.336
G0 X53.773 Y35.336
G0 X53.232 Y35.336
;TYPE:SKIN
G1 F1200 X48.744 Y35.336 E73.73813
G1 X48.744 Y24.416 E74.10133
G1 X53.232 Y24.416 E74.2506
G1 X53.232 Y35.336 E74.6138
G0 F6000 X53.492 Y35.336
G0 X53.492 Y24.747
G0 X53.032 Y24.747
G1 F1200 X52.901 Y24.617 E74.61994
G0 F6000 X52.335 Y24.617
G1 F1200 X53.032 Y25.313 E74.6527
